newicons/quizizz.svg

<?xml version="1.0" encoding="UTF-8" standalone="no"?>
<svg
   id="Layer_1"
   data-name="Layer 1"
   version="1.1"
   viewBox="0 0 48 48"
   xml:space="preserve"
   xmlns="http://www.w3.org/2000/svg"
   xmlns:svg="http://www.w3.org/2000/svg"><defs
     id="defs1"><style
       id="style1">
      .cls-1 {
        fill: none;
        stroke: #fff;
        stroke-linecap: round;
        stroke-linejoin: round;
      }
    </style></defs><rect
     class="cls-1"
     x="5.5"
     y="5.5"
     width="37"
     height="37"
     rx="4"
     ry="4"
     id="rect1" /><path
     style="fill:none;stroke:#ffffff;stroke-linecap:round;stroke-linejoin:round;stroke-dashoffset:0.5"
     d="m 42.5,32.867118 c 0,5.505321 -3.932631,7.260238 -6.881449,7.253778 L 12.306409,39.995831 C 9.2022312,39.890869 5.5,38.292358 5.5,32.867118"
     id="path1" /><path
     style="fill:none;stroke:#ffffff;stroke-linecap:round;stroke-linejoin:round;stroke-dashoffset:0.5"
     d="M 33.541993,40.109756 V 42.5"
     id="path2" /><path
     style="fill:none;stroke:#ffffff;stroke-linecap:round;stroke-linejoin:round;stroke-dashoffset:0.5"
     d="M 23.96248,40.058363 V 42.5"
     id="path3" /><path
     style="fill:none;stroke:#ffffff;stroke-linecap:round;stroke-linejoin:round;stroke-dashoffset:0.5"
     d="M 14.482212,40.007504 V 42.5"
     id="path4" /><path
     style="fill:none;stroke:#ffffff;stroke-linecap:round;stroke-linejoin:round;stroke-dashoffset:0.5"
     id="path5"
     d="M 29.271237,29.506179 A 9,9 0 0 1 17.428191,27.361939 9,9 0 0 1 18.307037,15.358475 9,9 0 0 1 30.336101,14.962058 9,9 0 0 1 32.00333,26.881615" /><circle
     style="fill:none;stroke:#ffffff;stroke-linecap:round;stroke-linejoin:round;stroke-dashoffset:0.5"
     id="path6"
     cx="33.83012"
     cy="31.347662"
     r="2" /></svg>

<?xml version="1.0" encoding="UTF-8"?><svg id="a" xmlns="http://www.w3.org/2000/svg" viewBox="0 0 48 48"><defs><style>.i{fill:none;stroke:#fff;stroke-linecap:round;stroke-linejoin:round;}</style></defs><rect id="b" class="i" x="5.5" y="5.5" width="37" height="37" rx="4" ry="4"/><path id="c" class="i" d="M42.5,32.8671c0,5.5053-3.9326,7.2602-6.8815,7.2538l-23.3121-.1251c-3.1042-.105-6.8064-1.7035-6.8064-7.1287"/><path id="d" class="i" d="M33.542,40.1098v2.3902"/><path id="e" class="i" d="M23.9625,40.0584v2.4416"/><path id="f" class="i" d="M14.4822,40.0075v2.4925"/><path id="g" class="i" d="M29.2712,29.5062c-3.9153,2.4181-9.0241,1.4932-11.843-2.1442-2.8189-3.6374-2.4398-8.8154.8788-12.0035,3.3187-3.188,8.5077-3.3591,12.0291-.3964,3.5214,2.9626,4.2406,8.1044,1.6672,11.9196"/><circle id="h" class="i" cx="33.8301" cy="31.3477" r="2"/></svg>
